X:1031
T:Ronas Voe
C:Joe Buchanan's Scottish Tome - Page 619.2
I:619 2
Z:Carl Allison
U:T=!tenuto!
R:Waltz
L:1/4
M:3/4
K:G
(B, C) | "G"D3 | "B7"B2 F | "Em"A G2 | "G7"D2 G | "C"E2 G | "Cm"A2 G | "G"B3- | "D7"B (B, C) |
"G"D3 | "D7"B2 F | "Em"A G2 | "Em"G2 B | "A7"A3 | "A7"A2 E | "A7"A3- | "D7"A (B, C) |
"G"D3 | "B7"B2 F | "Em"A G2 | "G7"D2 G | "C"E2 G | "Cm"A2 G | "G"B3- | "G7"B D |
"C"(TE2 TE) | "B7"(TF2 TF) | "Em"(TG2 TG) | "Am"(Tc2 Tc) | "G"B2 D | "D7"B2 A | "G"G3- | G2 :|

